Numix-Light/16/status/indicator-keyboard-Ml-3.svg

<?xml version="1.0" encoding="UTF-8" standalone="no"?>
<svg
   xmlns:dc="http://purl.org/dc/elements/1.1/"
   xmlns:cc="http://creativecommons.org/ns#"
   xmlns:rdf="http://www.w3.org/1999/02/22-rdf-syntax-ns#"
   xmlns:svg="http://www.w3.org/2000/svg"
   xmlns="http://www.w3.org/2000/svg"
   xmlns:sodipodi="http://sodipodi.sourceforge.net/DTD/sodipodi-0.dtd"
   xmlns:inkscape="http://www.inkscape.org/namespaces/inkscape"
   viewBox="0 0 16 16"
   id="svg2"
   version="1.1"
   inkscape:version="0.91 r13725"
   sodipodi:docname="indicator-keyboard-Ml-3.svg">
  <metadata
     id="metadata14">
    <rdf:RDF>
      <cc:Work
         rdf:about="">
        <dc:format>image/svg+xml</dc:format>
        <dc:type
           rdf:resource="http://purl.org/dc/dcmitype/StillImage" />
      </cc:Work>
    </rdf:RDF>
  </metadata>
  <defs
     id="defs12" />
  <sodipodi:namedview
     pagecolor="#ffffff"
     bordercolor="#666666"
     borderopacity="1"
     objecttolerance="10"
     gridtolerance="10"
     guidetolerance="10"
     inkscape:pageopacity="0"
     inkscape:pageshadow="2"
     inkscape:window-width="640"
     inkscape:window-height="480"
     id="namedview10"
     showgrid="false"
     inkscape:zoom="14.75"
     inkscape:cx="8"
     inkscape:cy="8"
     inkscape:window-x="65"
     inkscape:window-y="24"
     inkscape:window-maximized="0"
     inkscape:current-layer="svg2" />
  <path
     style="fill:#353535;fill-opacity:1"
     d="M 1.5996094 0 C 0.71320937 2.9605947e-16 0 0.71320937 0 1.5996094 L 0 14.400391 C 2.9605947e-16 15.286791 0.71320937 16 1.5996094 16 L 14.400391 16 C 15.286791 16 16 15.286791 16 14.400391 L 16 1.5996094 C 16 0.71320937 15.286791 0 14.400391 0 L 1.5996094 0 z M 10.353516 4.1113281 L 10.353516 9.9628906 C 10.353516 10.106891 10.366625 10.2225 10.390625 10.3125 C 10.420625 10.3965 10.461625 10.465531 10.515625 10.519531 C 10.569625 10.567531 10.638656 10.604906 10.722656 10.628906 C 10.812656 10.652906 10.917109 10.673406 11.037109 10.691406 L 10.957031 11.177734 C 10.759031 11.171734 10.585547 11.143703 10.435547 11.095703 C 10.291547 11.053703 10.168406 10.988438 10.066406 10.898438 C 9.9704061 10.802438 9.8957969 10.681109 9.8417969 10.537109 C 9.7937969 10.387109 9.7695312 10.202469 9.7695312 9.9804688 L 9.7695312 4.2207031 L 10.353516 4.1113281 z M 2.3144531 4.859375 L 2.8554688 4.859375 C 3.0354687 5.159375 3.2276406 5.5063438 3.4316406 5.9023438 C 3.6356406 6.2923438 3.8352031 6.7009531 4.0332031 7.1269531 C 4.2372031 7.5469531 4.4331406 7.9649062 4.6191406 8.3789062 C 4.8111406 8.7869063 4.9790469 9.154375 5.1230469 9.484375 C 5.2670469 9.154375 5.4311875 8.7869063 5.6171875 8.3789062 C 5.8091875 7.9649062 6.005125 7.5469531 6.203125 7.1269531 C 6.407125 6.7009531 6.6104531 6.2923438 6.8144531 5.9023438 C 7.0184531 5.5063438 7.210625 5.159375 7.390625 4.859375 L 7.9042969 4.859375 C 8.0062969 5.807375 8.09025 6.7998906 8.15625 7.8378906 C 8.22825 8.8758906 8.2917031 9.9617029 8.3457031 11.095703 L 7.7246094 11.095703 C 7.6886094 10.129703 7.6456563 9.2080312 7.5976562 8.3320312 C 7.5556563 7.4500313 7.4959687 6.6347656 7.4179688 5.8847656 C 7.3699687 5.9687656 7.2953594 6.1124063 7.1933594 6.3164062 C 7.0913594 6.5204063 6.9737969 6.7573437 6.8417969 7.0273438 C 6.7097969 7.2973438 6.5717344 7.5883906 6.4277344 7.9003906 C 6.2837344 8.2063906 6.1419063 8.5067812 6.0039062 8.8007812 C 5.8659063 9.0887812 5.7409531 9.3555625 5.6269531 9.6015625 C 5.5189531 9.8475625 5.435 10.045312 5.375 10.195312 L 4.8261719 10.195312 C 4.7661719 10.045312 4.6784531 9.8475625 4.5644531 9.6015625 C 4.4564531 9.3555625 4.3333125 9.0887812 4.1953125 8.8007812 C 4.0573125 8.5067812 3.9174375 8.2063906 3.7734375 7.9003906 C 3.6294375 7.5883906 3.491375 7.2973438 3.359375 7.0273438 C 3.227375 6.7573437 3.1098125 6.5204063 3.0078125 6.3164062 C 2.9058125 6.1124063 2.8312031 5.9687656 2.7832031 5.8847656 C 2.7052031 6.6347656 2.64175 7.4500312 2.59375 8.3320312 C 2.55175 9.2080312 2.5125625 10.129703 2.4765625 11.095703 L 1.8730469 11.095703 C 1.9270469 9.9617029 1.9886875 8.8758906 2.0546875 7.8378906 C 2.1266875 6.7998906 2.2124531 5.807375 2.3144531 4.859375 z M 12.757812 8.7539062 C 12.960612 8.7539062 13.133044 8.7793781 13.277344 8.8300781 C 13.425544 8.8807781 13.548984 8.953275 13.646484 9.046875 C 13.743984 9.136575 13.816481 9.2463 13.863281 9.375 C 13.910081 9.4997999 13.933594 9.6350031 13.933594 9.7832031 C 13.933594 10.021103 13.868934 10.217041 13.740234 10.369141 C 13.615434 10.517341 13.452806 10.625106 13.253906 10.691406 C 13.363106 10.718706 13.468912 10.759859 13.570312 10.818359 C 13.675612 10.872959 13.769663 10.945456 13.851562 11.035156 C 13.933463 11.120956 14.000081 11.226762 14.050781 11.351562 C 14.101481 11.476362 14.126953 11.623316 14.126953 11.791016 C 14.126953 11.962616 14.095603 12.119372 14.033203 12.263672 C 13.974703 12.407972 13.884572 12.535331 13.763672 12.644531 C 13.646672 12.749831 13.4958 12.834084 13.3125 12.896484 C 13.1292 12.954984 12.915622 12.984375 12.669922 12.984375 C 12.541222 12.984375 12.4217 12.974578 12.3125 12.955078 C 12.2072 12.939478 12.11315 12.919884 12.03125 12.896484 C 11.94935 12.873084 11.880766 12.849572 11.822266 12.826172 C 11.767666 12.802772 11.726519 12.783178 11.699219 12.767578 L 11.798828 12.427734 C 11.822228 12.443334 11.859463 12.462928 11.914062 12.486328 C 11.968663 12.509728 12.033322 12.533241 12.107422 12.556641 C 12.185422 12.576141 12.271634 12.593775 12.365234 12.609375 C 12.462734 12.624975 12.568541 12.632813 12.681641 12.632812 C 13.052141 12.632812 13.316662 12.556397 13.476562 12.404297 C 13.636463 12.248297 13.716797 12.040597 13.716797 11.779297 C 13.716797 11.607697 13.683488 11.464663 13.617188 11.351562 C 13.554787 11.238462 13.466616 11.148331 13.353516 11.082031 C 13.244316 11.011831 13.11695 10.962847 12.96875 10.935547 C 12.82445 10.904347 12.669659 10.888672 12.505859 10.888672 L 12.447266 10.888672 L 12.447266 10.574219 L 12.582031 10.574219 C 12.687331 10.574219 12.795097 10.564422 12.904297 10.544922 C 13.017397 10.521522 13.117331 10.480375 13.207031 10.421875 C 13.300631 10.363375 13.377047 10.285 13.435547 10.1875 C 13.497947 10.09 13.529297 9.9646001 13.529297 9.8125 C 13.529297 9.6838 13.507744 9.5760281 13.464844 9.4863281 C 13.421944 9.3927281 13.363162 9.3182719 13.289062 9.2636719 C 13.218863 9.2090719 13.136562 9.1698844 13.039062 9.1464844 C 12.945462 9.1191844 12.845534 9.1054687 12.740234 9.1054688 C 12.529634 9.1054688 12.365047 9.1348594 12.248047 9.1933594 C 12.131047 9.2518594 12.035037 9.3067219 11.960938 9.3574219 L 11.798828 9.0585938 C 11.837828 9.0312937 11.884859 8.9999438 11.943359 8.9648438 C 12.005759 8.9297438 12.078256 8.8964344 12.160156 8.8652344 C 12.242056 8.8340344 12.332187 8.8085625 12.429688 8.7890625 C 12.531087 8.7656625 12.640812 8.7539062 12.757812 8.7539062 z "
     id="path4" />
</svg>

<svg xmlns="http://www.w3.org/2000/svg" viewBox="0 0 16 16">
 <path d="m 1.6 0 c -0.886 0 -1.6 0.713 -1.6 1.6 l 0 12.801 c 0 0.886 0.713 1.6 1.6 1.6 l 12.801 0 c 0.886 0 1.6 -0.713 1.6 -1.6 l 0 -12.801 c 0 -0.886 -0.713 -1.6 -1.6 -1.6 l -12.801 0 z m 8.754 4.111 l 0 5.852 c 0 0.144 0.013 0.26 0.037 0.35 c 0.03 0.084 0.071 0.153 0.125 0.207 c 0.054 0.048 0.123 0.085 0.207 0.109 c 0.09 0.024 0.194 0.044 0.314 0.063 l -0.08 0.486 c -0.198 -0.006 -0.371 -0.034 -0.521 -0.082 c -0.144 -0.042 -0.267 -0.107 -0.369 -0.197 c -0.096 -0.096 -0.171 -0.217 -0.225 -0.361 c -0.048 -0.15 -0.072 -0.335 -0.072 -0.557 l 0 -5.76 l 0.584 -0.109 z m -8.04 0.748 l 0.541 0 c 0.18 0.3 0.372 0.647 0.576 1.043 c 0.204 0.39 0.404 0.799 0.602 1.225 c 0.204 0.42 0.4 0.838 0.586 1.252 c 0.192 0.408 0.36 0.775 0.504 1.105 c 0.144 -0.33 0.308 -0.697 0.494 -1.105 c 0.192 -0.414 0.388 -0.832 0.586 -1.252 c 0.204 -0.426 0.407 -0.835 0.611 -1.225 c 0.204 -0.396 0.396 -0.743 0.576 -1.043 l 0.514 0 c 0.102 0.948 0.186 1.941 0.252 2.979 c 0.072 1.038 0.135 2.124 0.189 3.258 l -0.621 0 c -0.036 -0.966 -0.079 -1.888 -0.127 -2.764 c -0.042 -0.882 -0.102 -1.697 -0.18 -2.447 c -0.048 0.084 -0.123 0.228 -0.225 0.432 c -0.102 0.204 -0.22 0.441 -0.352 0.711 c -0.132 0.27 -0.27 0.561 -0.414 0.873 c -0.144 0.306 -0.286 0.606 -0.424 0.9 c -0.138 0.288 -0.263 0.555 -0.377 0.801 c -0.108 0.246 -0.192 0.444 -0.252 0.594 l -0.549 0 c -0.06 -0.15 -0.148 -0.348 -0.262 -0.594 c -0.108 -0.246 -0.231 -0.513 -0.369 -0.801 c -0.138 -0.294 -0.278 -0.594 -0.422 -0.9 c -0.144 -0.312 -0.282 -0.603 -0.414 -0.873 c -0.132 -0.27 -0.25 -0.507 -0.352 -0.711 c -0.102 -0.204 -0.177 -0.348 -0.225 -0.432 c -0.078 0.75 -0.141 1.565 -0.189 2.447 c -0.042 0.876 -0.081 1.798 -0.117 2.764 l -0.604 0 c 0.054 -1.134 0.116 -2.22 0.182 -3.258 c 0.072 -1.038 0.158 -2.031 0.26 -2.979 z m 10.443 3.895 c 0.203 0 0.375 0.025 0.52 0.076 c 0.148 0.051 0.272 0.123 0.369 0.217 c 0.098 0.09 0.17 0.199 0.217 0.328 c 0.047 0.125 0.07 0.26 0.07 0.408 c 0 0.238 -0.065 0.434 -0.193 0.586 c -0.125 0.148 -0.287 0.256 -0.486 0.322 c 0.109 0.027 0.215 0.068 0.316 0.127 c 0.105 0.055 0.199 0.127 0.281 0.217 c 0.082 0.086 0.149 0.192 0.199 0.316 c 0.051 0.125 0.076 0.272 0.076 0.439 c 0 0.172 -0.031 0.328 -0.094 0.473 c -0.059 0.144 -0.149 0.272 -0.27 0.381 c -0.117 0.105 -0.268 0.19 -0.451 0.252 c -0.183 0.059 -0.397 0.088 -0.643 0.088 c -0.129 0 -0.248 -0.01 -0.357 -0.029 c -0.105 -0.016 -0.199 -0.035 -0.281 -0.059 c -0.082 -0.023 -0.15 -0.047 -0.209 -0.07 c -0.055 -0.023 -0.096 -0.043 -0.123 -0.059 l 0.1 -0.34 c 0.023 0.016 0.061 0.035 0.115 0.059 c 0.055 0.023 0.119 0.047 0.193 0.07 c 0.078 0.019 0.164 0.037 0.258 0.053 c 0.098 0.016 0.203 0.023 0.316 0.023 c 0.37 0 0.635 -0.076 0.795 -0.229 c 0.16 -0.156 0.24 -0.364 0.24 -0.625 c 0 -0.172 -0.033 -0.315 -0.1 -0.428 c -0.062 -0.113 -0.151 -0.203 -0.264 -0.27 c -0.109 -0.07 -0.237 -0.119 -0.385 -0.146 c -0.144 -0.031 -0.299 -0.047 -0.463 -0.047 l -0.059 0 l 0 -0.314 l 0.135 0 c 0.105 0 0.213 -0.01 0.322 -0.029 c 0.113 -0.023 0.213 -0.065 0.303 -0.123 c 0.094 -0.059 0.17 -0.137 0.229 -0.234 c 0.062 -0.098 0.094 -0.223 0.094 -0.375 c 0 -0.129 -0.022 -0.236 -0.064 -0.326 c -0.043 -0.094 -0.102 -0.168 -0.176 -0.223 c -0.07 -0.055 -0.152 -0.094 -0.25 -0.117 c -0.094 -0.027 -0.194 -0.041 -0.299 -0.041 c -0.211 0 -0.375 0.029 -0.492 0.088 c -0.117 0.059 -0.213 0.113 -0.287 0.164 l -0.162 -0.299 c 0.039 -0.027 0.086 -0.059 0.145 -0.094 c 0.062 -0.035 0.135 -0.068 0.217 -0.1 c 0.082 -0.031 0.172 -0.057 0.27 -0.076 c 0.101 -0.023 0.211 -0.035 0.328 -0.035 z" style="fill:#353535;fill-opacity:1"/>
</svg>
